X:189
T:Ways in New Hall
R:Reel
M:C|
L:1/8
K:G % 1 sharp
||:D2|"G"G3B d2B2|"D7"cA FA c2 dc|"G"B2 G2 D2 B2|"Am"cBAG "D"F2D2|\
"G"G3B d2B2|"D7"cAFA c2 dc|"G"BdBG"D7"AcAF|"G"G6G2:||d2\
"G"g3a"Em"b2ag|"D"a2f2 d2ef|"G"g3a b2ag|"Am"a4 "D"a2d2|"G"g3a"Em"b2 ag|\
"D"a2f2 "Bm"d2d2|"Am"efga "D7"g2d2"G"g4g2d2|"G"g3a "Em"b2ag|"A7"agfe "D"d2ef|\
"G"g2Bd "Am"cBAG|"D"A4 A2D2|"C"EFGA "D"FGAB|"Am"cB aG "D"F2D2|"Am"EFGA "D7"F2D2|"G"G4G2||

%  <A name="D1X190"></A>
